X:117
M:6/8
L:1/8
Q:3/8=110
K:D
|:a|afd gec|def gfe|fag fed|e2 e e2 a|\
bfg agf|(e/f/g)e cBA|Bgf edc|d2 d d2:|

